!!!!SEGMENT: pl-kk--kk-i-339_gorczycki-grzegorz-gerwazy--dignare-me-laudare.krn
!!!cenid: 17xx:2149
!!!COM: Gorczycki, Grzegorz Gerwazy
!!!COM-rism: pe30009207
!!!CDT: ~1666-1734/04/30
!!!CNT: Polish
!!!OTL: Dignare me laudare
!!!PDT:
!!!AGN: Sacred
!!!SMS-siglum: PL-Kk
!!!SMS-shelfmark: Kk.I.339
!!!SMS-variant:
!!!SMS-altvar:
!!!NIFC-rismID: 1001144799
!!!system-decoration: [(s1,s2,s3,s4)]
**kern	**text	**kern	**text	**dynam	**kern	**text	**kern	**text
*part4	*part4	*part3	*part3	*part3	*part2	*part2	*part1	*part1
*staff4	*staff4	*staff3	*staff3	*	*staff2	*staff2	*staff1	*staff1
*I"Baſso.	*	*I"Tenore	*	*	*I"Alto	*	*I"Canto.	*
*I'B.	*	*I'T.	*	*	*I'A.	*	*I'S.	*
*clefF4	*	*clefC4	*	*	*clefC3	*	*clefC1	*
*k[]	*	*k[]	*	*	*k[]	*	*k[]	*
*M2/1	*	*M2/1	*	*	*M2/1	*	*M2/1	*
*met(C|)	*	*met(C|)	*	*	*met(C|)	*	*met(C|)	*
=-	=-	=-	=-	=-	=-	=-	=-	=-
*	*	*2\right	*	*	*	*	*	*
!LO:TX:t=P:problem:w źródle inicjał D na początku pięciolinii, przed kluczem	!	!	!	!	!	!	!	!
!LO:TX:a:Bi:t=G. G. G.  \nE C. C. V.:rj	!	!	!	!	!	!	!LO:TX:a:Bi:t=Dignare me laudare Te Virgo Sacrata Auth&colon; RD(?) GGG a 4 Uoci.	!
!	!	!	!	!	!LO:TX:a:Bi:t=3	!	!	!
!	!	!	!	!LO:DY:a:Bi:t=%sor.	!	!	!	!
00r	.	1d	Di-	f	0r	.	00r	.
.	.	2d\	-gna-	.	.	.	.	.
!	!	!LO:TX:t=P:problem:kreska pseudotaktowa	!	!	!	!	!	!
.	.	2c#X\	-re	.	.	.	.	.
=1-	=1-	=1	=1	=1	=1-	=1-	=1-	=1-
*	*	*	*	*	*2\right	*	*	*
!	!	!LO:TX:a:t=P:w źródle pionowa kreseczka [znak opddechu lub rozdzielenie słów]:problem:global	!	!	!	!	!	!
!	!	!	!	!	!LO:TX:t=P:problem:kreska pseudotaktowa	!	!	!
.	.	2d,<\	me	.	1r	.	.	.
!	!	!LO:TX:t=P:problem:kreska pseudotaktowa	!	!	!	!	!	!
.	.	2A/	lau-	.	.	.	.	.
.	.	(>4d\	-da-	.	1a	Di-	.	.
.	.	4cny\	.	.	.	.	.	.
.	.	4d\	.	.	.	.	.	.
!	!	!LO:TX:t=P:problem:kreska pseudotaktowa	!	!	!	!	!	!
.	.	4e\)	.	.	.	.	.	.
=2-	=2-	=2	=2	=2	=2-	=2-	=2-	=2-
!	!	!	!	!	!	!	!LO:TX:t=P:problem:kreska pseudotaktowa	!
00r	.	2f\	.	.	2a\	-gna-	0r	.
!	!	!	!	!	!LO:TX:t=P:problem:kreska pseudotaktowa	!	!	!
.	.	4e\	.	.	2g\	-re	.	.
!	!	!LO:TX:t=P:problem:kreska pseudotaktowa	!	!	!	!	!	!
.	.	4d\	.	.	.	.	.	.
.	.	4c\	.	.	2a\	me	.	.
.	.	4B-X\	.	.	.	.	.	.
!	!	!	!	!	!LO:TX:t=P:problem:kreska pseudotaktowa	!	!	!
.	.	4A\	.	.	2e\	.	.	.
!	!	!LO:TX:t=P:problem:kreska pseudotaktowa	!	!	!	!	!	!
.	.	4G\	.	.	.	.	.	.
=3-	=3-	=3	=3	=3	=3	=3	=3	=3
*	*	*	*	*	*	*	*2\right	*
.	.	4F/	.	.	2a\	lau-	1dd	Di-
.	.	4D/	.	.	.	.	.	.
.	.	4F/	.	.	4g\	-da-	.	.
!	!	!LO:TX:t=P:problem:kreska pseudotaktowa	!	!	!LO:TX:t=P:problem:kreska pseudotaktowa	!	!	!
.	.	4G/	.	.	4f\	.	.	.
.	.	2A/	.	.	4e\	.	2dd\	-gna-
.	.	.	.	.	4d\	.	.	.
!	!	!LO:TX:t=P:problem:kreska pseudotaktowa	!	!	!	!	!LO:TX:t=P:problem:kreska pseudotaktowa	!
.	.	2A/	-re	.	4e\	.	2cc#X\	-re
!	!	!	!	!	!LO:TX:t=P:problem:kreska pseudotaktowa	!	!	!
.	.	.	.	.	4f\	.	.	.
=4-	=4-	=4	=4	=4	=4	=4	=4	=4
*2\right	*	*	*	*	*	*	*	*
!LO:TX:t=P:problem:kreska pseudotaktowa	!	!	!	!	!	!	!	!
!	!	!	!	!	!	!	!LO:TX:a:t=P:w źródle pionowa kreseczka [znak opddechu lub rozdzielenie słów]:problem:global	!
1r	.	2D,</	te	.	4d\	.	2dd,<\	me
.	.	.	.	.	4e\	.	.	.
!	!	!LO:LB:g=original	!	!	!	!	!	!
!	!	!LO:TX:t=P:problem:kreska pseudotaktowa	!	!	!	!	!LO:TX:t=P:problem:kreska pseudotaktowa	!
.	.	2d\	lau-	.	4f\	.	2a\	lau-
!	!	!	!	!	!LO:TX:t=P:problem:kreska pseudotaktowa	!	!	!
.	.	.	.	.	4g\	.	.	.
1D	Di-	2A/	-da-	.	2a\	.	4dd\	-da-
.	.	.	.	.	.	.	(>4ccny\	.
!	!	!LO:TX:t=P:problem:kreska pseudotaktowa	!	!	!LO:TX:t=P:problem:kreska pseudotaktowa	!	!	!
.	.	2F/	-re	.	2a\	-re	4dd\	.
!	!	!	!	!	!	!	!LO:TX:t=P:problem:kreska pseudotaktowa	!
.	.	.	.	.	.	.	4ee\)	.
=5-	=5-	=5	=5	=5	=5	=5	=5	=5
2D/	-gna-	2D,</	te	.	2r	.	2ff\	.
!LO:TX:t=P:problem:kreska pseudotaktowa	!	!LO:TX:t=P:problem:kreska pseudotaktowa	!	!	!LO:TX:t=P:problem:kreska pseudotaktowa	!	!LO:TX:t=P:problem:kreska pseudotaktowa	!
2C#X/	-re	2A/	lau-	.	2e\	lau-	2een\	.
2D/	me	1A	-da-	.	2.a\	-da-	2dd\	.
!LO:TX:t=P:problem:kreska pseudotaktowa	!	!	!	!	!	!	!	!
2AA/	lau-	.	.	.	.	.	4cc\	.
!	!	!	!	!	!LO:TX:t=P:problem:kreska pseudotaktowa	!	!LO:TX:t=P:problem:kreska pseudotaktowa	!
.	.	.	.	.	4g\	.	4b\	.
!	!	!	!	!	!LO:LB:g=original	!	!	!
=6	=6	=6-	=6-	=6-	=6	=6	=6	=6
4D/	-da-	2A,</	-re	.	4f\	.	2.a\	.
4C/	.	.	.	.	4e\	.	.	.
*	*	*	*ij	*	*	*	*	*
!	!	!LO:TX:t=P:problem:kreska pseudotaktowa	!	!	!LO:TX:t=P:problem:kreska pseudotaktowa	!	!	!
4D/	.	2F/	lau-	.	2d\	.	.	.
!LO:TX:t=P:problem:kreska pseudotaktowa	!	!	!	!	!	!	!LO:TX:t=P:problem:kreska pseudotaktowa	!
4E\	.	.	.	.	.	.	4g\	.
2F\	.	1c	-da-	.	4c\	.	4a\	.
.	.	.	.	.	4d\	.	4b\	.
4E\	.	.	.	.	4e\	.	4cc\	.
!	!	!	!	!	!	!	!LO:TX:t=P:problem:kreska pseudotaktowa	!
!LO:TX:t=P:problem:kreska pseudotaktowa	!	!	!	!	!LO:TX:t=P:problem:kreska pseudotaktowa	!	!	!
!	!	!	!	!	!	!	!LO:SIC:v:t=custos ee	!
4D\	.	.	.	.	4f\	.	4dd\	.
!	!	!	!	!	!	!	!LO:LB:g=original	!
=7	=7	=7-	=7-	=7-	=7	=7	=7	=7
4C/	.	2c\	-re	.	4g\	.	4ee\	.
4BB/	.	.	.	.	4d\	.	4dd\	.
*	*	*	*Xij	*	*	*	*	*
!	!	!LO:TX:t=P:problem:kreska pseudotaktowa	!	!	!	!	!	!
4AA/	.	2r	.	.	1f	.	4cc\	.
!LO:TX:t=P:problem:kreska pseudotaktowa	!	!	!	!	!	!	!LO:TX:t=P:problem:kreska pseudotaktowa	!
4GG/	.	.	.	.	.	.	4b\	.
4FF/	.	1d	di-	.	.	.	4a\	.
4DD/	.	.	.	.	.	.	4g\	.
!	!	!	!	!	!LO:TX:a:t=P:w źródle pionowa kreseczka [znak opddechu lub rozdzielenie słów]:problem:global	!	!	!
4FF/	.	.	.	.	4f,<\	-re	4a\	.
!LO:TX:t=P:problem:kreska pseudotaktowa	!	!	!	!	!LO:TX:t=P:problem:kreska pseudotaktowa	!	!LO:TX:t=P:problem:kreska pseudotaktowa	!
4GG/	.	.	.	.	4f\	lau-	4b-X\	.
!LO:LB:g=original	!	!	!	!	!	!	!	!
=8-	=8-	=8-	=8-	=8-	=8	=8	=8	=8
2AA/	.	2d\	-gna-	.	2e\	-da-	2a\	.
!LO:TX:t=P:problem:kreska pseudotaktowa	!	!LO:TX:t=P:problem:kreska pseudotaktowa	!	!	!	!	!LO:TX:t=P:problem:kreska pseudotaktowa	!
2AA/	-re	2c#X\	-re	.	2e\	-re	2a\	-re
!	!	!	!	!	!LO:TX:t=P:problem:kreska pseudotaktowa	!	!	!
2D/	te	2.d\	me	.	1f	te	2a,<\	te
!LO:TX:t=P:problem:kreska pseudotaktowa	!	!	!	!	!	!	!LO:TX:t=P:problem:kreska pseudotaktowa	!
2F\	lau-	.	.	.	.	.	2dd\	di-
!	!	!LO:TX:t=P:problem:kreska pseudotaktowa	!	!	!	!	!	!
.	.	4A/	lau-	.	.	.	.	.
=9	=9	=9	=9	=9	=9	=9	=9	=9
!	!	!	!	!	!LO:TX:t=P:problem:kreska pseudotaktowa	!	!	!
1E	-da-	2G/	-da-	.	1r	.	2dd\	-gna-
!	!	!LO:TX:t=P:problem:kreska pseudotaktowa	!	!	!	!	!	!
.	.	2G/	-re	.	.	.	2cc#X\	-re
!LO:TX:a:t=P:w źródle pionowa kreseczka [znak opddechu lub rozdzielenie słów]:problem:global	!	!	!	!	!	!	!	!
2D,</	-re	2F,</	te	.	1a	di-	2dd,<\	me
!LO:TX:t=P:problem:kreska pseudotaktowa	!	!LO:TX:t=P:problem:kreska pseudotaktowa	!	!	!	!	!LO:TX:t=P:problem:kreska pseudotaktowa	!
2AA/	lau-	2A/	lau-	.	.	.	2ccn\	lau-
!	!	!LO:LB:g=original	!	!	!	!	!	!
=10	=10	=10	=10	=10	=10-	=10-	=10	=10
2E\	-da-	(>4Bn\	-da-	.	2a\	-gna-	2b\	-da-
.	.	4c\	.	.	.	.	.	.
!LO:TX:t=P:problem:kreska pseudotaktowa	!	!	!	!	!LO:TX:t=P:problem:kreska pseudotaktowa	!	!LO:TX:t=P:problem:kreska pseudotaktowa	!
2E\	-re	4d\	.	.	2g#X\	-re	2bni\	-re
!	!	!LO:TX:t=P:problem:kreska pseudotaktowa	!	!	!	!	!	!
.	.	4e\)	.	.	.	.	.	.
2AA,</	te	4c\	.	.	2a\	me	2a,<\	te
.	.	4A\	.	.	.	.	.	.
!LO:TX:t=P:problem:kreska pseudotaktowa	!	!LO:TX:t=P:problem:kreska pseudotaktowa	!	!	!LO:TX:t=P:problem:kreska pseudotaktowa	!	!LO:TX:t=P:problem:kreska pseudotaktowa	!
2A\	di-	2c\	.	.	2e\	lau-	2a\	lau-
=11	=11	=11	=11	=11	=11	=11	=11	=11
2A\	-gna-	2B\	.	.	2d\	-da-	(>4b\	-da-
.	.	.	.	.	.	.	4cc\	.
!LO:TX:t=P:problem:kreska pseudotaktowa	!	!LO:TX:t=P:problem:kreska pseudotaktowa	!	!	!LO:TX:t=P:problem:kreska pseudotaktowa	!	!	!
2G#X\	-re	2B\	-re	.	2e\	-re	4dd\)	.
!	!	!	!	!	!	!	!LO:TX:t=P:problem:kreska pseudotaktowa	!
.	.	.	.	.	.	.	4ee\	.
2A\	me	2A,</	te	.	2A/	te	4cc\	.
!	!	!	!	!	!	!	!LO:TX:t=P:problem:po nucie kasownik w roli kustosza	!
.	.	.	.	.	.	.	4a\	.
!	!	!	!	!	!	!	!LO:LB:g=original	!
!LO:TX:t=P:problem:kreska pseudotaktowa	!	!LO:TX:t=P:problem:kreska pseudotaktowa	!	!	!LO:TX:t=P:problem:kreska pseudotaktowa	!	!LO:TX:t=P:problem:kreska pseudotaktowa	!
2E\	lau-	2G#X/	lau-	.	2e\	lau-	2bn\	.
=12	=12	=12	=12	=12	=12	=12	=12	=12
2A\	-da-	2A/	-da-	.	4e\	-da-	2a,<\	-re
.	.	.	.	.	4d\	.	.	.
!	!	!	!	!	!	!	!LO:TX:t=P:problem:kreska pseudotaktowa	!
4G\	.	1d	.	.	4e\	.	2g/	lau-
!LO:TX:t=P:problem:kreska pseudotaktowa	!	!	!	!	!	!	!	!
4F\	.	.	.	.	4f\	.	.	.
!	!	!	!	!	!LO:LB:g=original	!	!	!
2E\	.	.	.	.	2g\	.	2g/	-da-
!	!	!LO:TX:t=P:problem:kreska pseudotaktowa	!	!	!	!	!	!
2E\	-re	2c#X\	-re	.	2g\	-re	2e/	-re
=13-	=13-	=13	=13	=13	=13-	=13-	=13-	=13-
!	!	!LO:TX:t=P:problem:kreska pseudotaktowa	!	!	!LO:TX:t=P:problem:kreska pseudotaktowa	!	!LO:TX:t=P:problem:kreska pseudotaktowa	!
2D,</	te	1d,<	te.	.	1fn	te	1a,<	te.
!LO:LB:g=original	!	!	!	!	!	!	!	!
!LO:TX:t=P:problem:kreska pseudotaktowa	!	!	!	!	!	!	!	!
2D/	vir-	.	.	.	.	.	.	.
2D/	-go	2r	.	.	00r	.	00r	.
!LO:TX:t=P:problem:kreska pseudotaktowa	!	!LO:TX:t=P:problem:kreska pseudotaktowa	!	!	!	!	!	!
2C/	sa-	2A/	Vir-	.	.	.	.	.
=14	=14	=14	=14	=14	=14-	=14-	=14-	=14-
2D/	-cra-	2A/	-go	.	.	.	.	.
!LO:TX:t=P:problem:kreska pseudotaktowa	!	!LO:TX:t=P:problem:kreska pseudotaktowa	!	!	!	!	!	!
2E\	.	2G/	sa-	.	.	.	.	.
2F\	.	2A/	-cra-	.	.	.	.	.
!	!	!LO:TX:t=P:problem:kreska pseudotaktowa	!	!	!	!	!	!
4E\	.	2B\	.	.	.	.	.	.
!LO:TX:t=P:problem:kreska pseudotaktowa	!	!	!	!	!	!	!	!
4D\	.	.	.	.	.	.	.	.
=15	=15	=15	=15	=15	=15-	=15-	=15-	=15-
4C\	.	2c\	.	.	.	.	.	.
4D\	.	.	.	.	.	.	.	.
4E\	.	4B\	.	.	.	.	.	.
!LO:TX:t=P:problem:kreska pseudotaktowa	!	!LO:TX:t=P:problem:kreska pseudotaktowa	!	!	!	!	!	!
4F\	.	4A\	.	.	.	.	.	.
!	!	!LO:LB:g=original	!	!	!	!	!	!
!	!	!	!	!	!LO:TX:t=P:problem:kreska pseudotaktowa	!	!	!
2G\	.	4G\	.	.	1r	.	0r	.
.	.	4A\	.	.	.	.	.	.
4F\	.	4B\	.	.	.	.	.	.
!LO:TX:t=P:problem:kreska pseudotaktowa	!	!LO:TX:t=P:problem:kreska pseudotaktowa	!	!	!	!	!	!
4E\	.	4c\	.	.	.	.	.	.
=16	=16	=16-	=16-	=16-	=16	=16	=16-	=16-
!	!	!	!	!	!	!	!LO:TX:t=P:problem:kreska pseudotaktowa	!
(>4D\	.	2.d\	.	.	2r	.	.	.
4E\	.	.	.	.	.	.	.	.
4F\)	.	.	.	.	2d\	vir-	.	.
!LO:TX:t=P:problem:kreska pseudotaktowa	!	!	!	!	!	!	!	!
4G\	.	8c\L	.	.	.	.	.	.
.	.	8B\J	.	.	.	.	.	.
!	!	!LO:TX:t=P:problem:kreska pseudotaktowa	!	!	!	!	!	!
(<2A\	.	1A	.	.	2d\	-go	2r	.
!	!	!	!	!	!LO:TX:t=P:problem:kreska pseudotaktowa	!	!	!
2AA/)	.	.	.	.	2c#X/	sa-	2a\	vir-
=17-	=17-	=17	=17	=17	=17	=17	=17-	=17-
2D,</	-ta	2A/	-ta.	.	2d\	-cra-	2a\	-go
!LO:TX:t=P:problem:kreska pseudotaktowa	!	!LO:TX:t=P:problem:kreska pseudotaktowa	!	!	!LO:TX:t=P:problem:kreska pseudotaktowa	!	!LO:TX:t=P:problem:kreska pseudotaktowa	!
2r	.	2r	.	.	2e\	.	2g/	sa-
00r	.	0r	.	.	2f\	.	2a\	-cra-
!	!	!	!	!	!	!	!LO:TX:t=P:problem:kreska pseudotaktowa	!
.	.	.	.	.	4e\	.	2bn\	.
!	!	!	!	!	!LO:TX:t=P:problem:kreska pseudotaktowa	!	!	!
.	.	.	.	.	4d\	.	.	.
=18-	=18-	=18-	=18-	=18-	=18	=18	=18	=18
.	.	.	.	.	4c\	.	(>2cc\	.
.	.	.	.	.	4d\	.	.	.
.	.	.	.	.	4e\	.	4b\	.
!	!	!	!	!	!LO:TX:t=P:problem:kreska pseudotaktowa	!	!LO:TX:t=P:problem:kreska pseudotaktowa	!
.	.	.	.	.	4f\	.	4a\)	.
!	!	!LO:TX:t=P:problem:kreska pseudotaktowa	!	!	!	!	!	!
.	.	1r	.	.	2g\	.	4g\	.
.	.	.	.	.	.	.	4a\	.
.	.	.	.	.	4f\	.	4b\	.
!	!	!	!	!	!LO:TX:t=P:problem:kreska pseudotaktowa	!	!LO:TX:t=P:problem:kreska pseudotaktowa	!
.	.	.	.	.	4e\	.	4cc\	.
=19-	=19-	=19	=19	=19	=19	=19	=19	=19
.	.	1d	Di-	.	4d\	.	2.dd\	.
.	.	.	.	.	4e\	.	.	.
.	.	.	.	.	4f\	.	.	.
!	!	!	!	!	!LO:TX:t=P:problem:kreska pseudotaktowa	!	!	!
.	.	.	.	.	4g\	.	8cc\L	.
!	!	!	!	!	!	!	!LO:TX:t=P:problem:kreska pseudotaktowa	!
.	.	.	.	.	.	.	8b\J	.
00r	.	2d\	-gna	.	2a\	.	1a	.
!	!	!LO:TX:t=P:problem:kreska pseudotaktowa	!	!	!LO:TX:t=P:problem:kreska pseudotaktowa	!	!	!
.	.	2c#X\	re	.	2e\	.	.	.
=20-	=20-	=20	=20	=20	=20	=20	=20-	=20-
!	!	!	!	!	!	!	!LO:TX:t=P:problem:kreska pseudotaktowa	!
.	.	2d\	me	.	(>2f\	.	1a,<	-ta
!	!	!	!	!	!LO:LB:g=original	!	!	!
!	!	!LO:TX:t=P:problem:kreska pseudotaktowa	!	!	!LO:TX:t=P:problem:kreska pseudotaktowa	!	!	!
!	!	!	!	!	!LO:TX:a:t=P:w źródle brak zakończenia łuku:problem	!	!	!
.	.	2A/	lau-	.	2e\)	.	.	.
!	!	!	!	!	!	!	!LO:TX:a:Bi:t=2	!
.	.	4d\	-da-	.	2d,<\	-ta	0r	.
.	.	4c\	.	.	.	.	.	.
!	!	!	!	!	!LO:TX:t=P:problem:kreska pseudotaktowa	!	!	!
.	.	4d\	.	.	2a\	di-	.	.
!	!	!LO:TX:t=P:problem:kreska pseudotaktowa	!	!	!	!	!	!
.	.	4e\	.	.	.	.	.	.
=21-	=21-	=21	=21	=21	=21	=21	=21-	=21-
!	!	!	!	!	!	!	!LO:TX:t=P:problem:kreska pseudotaktowa	!
.	.	2f\	.	.	2a\	-gna-	.	.
!	!	!LO:TX:t=P:problem:kreska pseudotaktowa	!	!	!LO:TX:t=P:problem:kreska pseudotaktowa	!	!	!
.	.	2e\	.	.	2g\	-re	.	.
!	!	!	!	!	!	!	!LO:LB:g=original	!
00r	.	2d\	.	.	2a\	me	2r	.
!	!	!LO:TX:t=P:problem:kreska pseudotaktowa	!	!	!LO:TX:t=P:problem:kreska pseudotaktowa	!	!	!
.	.	2c\	.	.	2e\	lau-	2a\	vir-
!	!	!LO:LB:g=original	!	!	!	!	!	!
=22-	=22-	=22	=22	=22	=22	=22	=22-	=22-
.	.	1B-X	.	.	4d\	-da-	2a,<\	-go
.	.	.	.	.	(>4e\	.	.	.
!	!	!	!	!	!	!	!LO:TX:t=P:problem:kreska pseudotaktowa	!
.	.	.	.	.	4f\)	.	2g/	sa-
!	!	!	!	!	!LO:TX:t=P:problem:kreska pseudotaktowa	!	!	!
.	.	.	.	.	4g\	.	.	.
.	.	2A,</	-re	.	4e\	.	2.a\	-cra-
.	.	.	.	.	4c/	.	.	.
!	!	!LO:TX:t=P:problem:kreska pseudotaktowa	!	!	!LO:TX:t=P:problem:kreska pseudotaktowa	!	!	!
.	.	2F/	lau-	.	2f\	.	.	.
!	!	!	!	!	!	!	!LO:TX:t=P:problem:kreska pseudotaktowa	!
.	.	.	.	.	.	.	4b-X\	.
=23-	=23-	=23	=23	=23	=23	=23	=23	=23
.	.	1.c	-da-	.	2e,<\	-re	4cc\	.
.	.	.	.	.	.	.	4b-X\	.
!	!	!	!	!	!LO:TX:t=P:problem:kreska pseudotaktowa	!	!	!
.	.	.	.	.	2f\	lau-	4a\	.
!	!	!	!	!	!	!	!LO:TX:t=P:problem:kreska pseudotaktowa	!
.	.	.	.	.	.	.	4f/	.
!LO:TX:t=P:problem:kreska pseudotaktowa	!	!	!	!	!	!	!	!
1r	.	.	.	.	4g\	-da-	4b-\	.
.	.	.	.	.	4f\	.	4a\	.
!	!	!LO:TX:t=P:problem:kreska pseudotaktowa	!	!	!	!	!	!
.	.	2c\	-re	.	2e\	-re	2g/	.
!LO:LB:g=original	!	!	!	!	!	!	!	!
=24	=24	=24	=24	=24	=24-	=24-	=24-	=24-
!	!	!LO:TX:t=P:problem:kreska pseudotaktowa	!	!	!LO:TX:t=P:problem:kreska pseudotaktowa	!	!LO:TX:t=P:problem:kreska pseudotaktowa	!
2r	.	1F	te	.	1fn	te	1a,<	-ta
!LO:TX:t=P:problem:kreska pseudotaktowa	!	!	!	!	!	!	!	!
2D/	vir-	.	.	.	.	.	.	.
2D/	-go	2r	.	.	1r	.	0r	.
!LO:TX:t=P:problem:kreska pseudotaktowa	!	!LO:TX:t=P:problem:kreska pseudotaktowa	!	!	!	!	!	!
2C/	sa-	2A/	vir-	.	.	.	.	.
=25	=25	=25	=25	=25	=25-	=25-	=25-	=25-
!	!	!	!	!	!	!	!LO:TX:t=P:problem:kreska pseudotaktowa	!
2D/	-cra-	2A/	-go	.	2r	.	.	.
!LO:TX:t=P:problem:kreska pseudotaktowa	!	!LO:TX:t=P:problem:kreska pseudotaktowa	!	!	!LO:TX:t=P:problem:kreska pseudotaktowa	!	!	!
2E\	.	2G/	sa-	.	2e\	vir-	.	.
2F\	.	2A/	-cra-	.	2c/	-go	1r	.
!	!	!LO:TX:t=P:problem:kreska pseudotaktowa	!	!	!LO:TX:t=P:problem:kreska pseudotaktowa	!	!	!
4E\	.	2B\	.	.	2e\	sa-	.	.
!LO:TX:t=P:problem:kreska pseudotaktowa	!	!	!	!	!	!	!	!
4D\	.	.	.	.	.	.	.	.
!	!	!	!	!	!LO:LB:g=original	!	!	!
=26	=26	=26	=26	=26	=26	=26	=26-	=26-
4C\	.	2c\	.	.	2g\	-cra-	2r	.
4D\	.	.	.	.	.	.	.	.
!	!	!	!	!	!LO:TX:t=P:problem:kreska pseudotaktowa	!	!	!
4E\	.	4B\	.	.	2g\	-ta	2cc\	Vir-
!LO:TX:t=P:problem:kreska pseudotaktowa	!	!LO:TX:t=P:problem:kreska pseudotaktowa	!	!	!	!	!	!
4F\	.	4A\	.	.	.	.	.	.
2G\	.	(>4G\	.	.	1r	.	2bn\	-go
.	.	4A\	.	.	.	.	.	.
!	!	!	!	!	!	!	!LO:TX:t=P:problem:kreska pseudotaktowa	!
4F\	.	4B\)	.	.	.	.	2g/	Sa-
!LO:TX:t=P:problem:kreska pseudotaktowa	!	!LO:TX:t=P:problem:kreska pseudotaktowa	!	!	!	!	!	!
4E\	.	4c\	.	.	.	.	.	.
=27	=27	=27	=27	=27	=27-	=27-	=27	=27
4D\	.	2d\	.	.	2r	.	2dd\	-cra-
4E\	.	.	.	.	.	.	.	.
!	!	!	!	!	!LO:TX:t=P:problem:kreska pseudotaktowa	!	!LO:TX:t=P:problem:kreska pseudotaktowa	!
4F\	.	4c\	.	.	2d\	vir-	2dd\	-ta
!LO:TX:t=P:problem:kreska pseudotaktowa	!	!LO:TX:t=P:problem:kreska pseudotaktowa	!	!	!	!	!	!
4G\	.	4B\	.	.	.	.	.	.
(<2A\	.	2.A/	.	.	2d\	-go	2r	.
!LO:TX:t=P:problem:kreska pseudotaktowa	!	!	!	!	!LO:TX:t=P:problem:kreska pseudotaktowa	!	!LO:TX:t=P:problem:kreska pseudotaktowa	!
2AA/)	.	.	.	.	2c#X/	sa-	2a\	vir-
.	.	4G/	.	.	.	.	.	.
=28	=28	=28-	=28-	=28-	=28	=28	=28	=28
2D/	-ta	2F#X/	-ta	.	2d\	-cra-	2a\	-go
!	!	!LO:LB:g=original	!	!	!	!	!	!
!LO:TX:t=P:problem:kreska pseudotaktowa	!	!	!	!	!LO:TX:t=P:problem:kreska pseudotaktowa	!	!LO:TX:t=P:problem:kreska pseudotaktowa	!
!	!	!LO:TX:t=P:problem:kreska pseudotaktowa	!	!	!	!	!	!
2r	.	2r	.	.	2e\	.	2g/	sa-
!LO:LB:g=original	!	!	!	!	!	!	!LO:LB:g=original	!
2r	.	1r	.	.	2f\	.	2.a\	-cra-
!LO:TX:t=P:problem:kreska pseudotaktowa	!	!	!	!	!	!	!	!
2A\	vir-	.	.	.	4e\	.	.	.
!	!	!	!	!	!LO:TX:t=P:problem:kreska pseudotaktowa	!	!LO:TX:t=P:problem:kreska pseudotaktowa	!
.	.	.	.	.	4d\	.	4bn\	.
=29	=29	=29-	=29-	=29-	=29	=29	=29	=29
!LO:TX:t=P:problem:korekta wysokości nuty, nad nutą litera a	!	!	!	!	!	!	!	!
2A\	-go	1A	sa-	.	(>4c\	.	2cc\	.
.	.	.	.	.	4d\	.	.	.
!LO:TX:t=P:problem:kreska pseudotaktowa	!	!	!	!	!	!	!	!
2D/	sa-	.	.	.	4e\)	.	4b\	.
!	!	!	!	!	!LO:TX:t=P:problem:kreska pseudotaktowa	!	!LO:TX:t=P:problem:kreska pseudotaktowa	!
.	.	.	.	.	4f\	.	4a\	.
!LO:TX:t=P:problem:kreska pseudotaktowa	!	!	!	!	!	!	!	!
!	!	!LO:TX:t=P:problem:korekta wysokości nuty, nad nutą litera h	!	!	!	!	!	!
1E	-cra-	2B/	-cra-	.	1e	-ta	2g#X,</	-ta
!	!	!LO:TX:t=P:problem:kreska pseudotaktowa	!	!	!	!	!LO:TX:t=P:problem:kreska pseudotaktowa	!
.	.	2G#X/	.	.	.	.	2ee\	vir-
=30	=30	=30	=30	=30	=30-	=30-	=30	=30
2AA,</	-ta	2A/	-ta	.	2e\	.	2cc#X\	-go
!	!	!LO:TX:t=P:problem:kreska pseudotaktowa	!	!	!LO:TX:t=P:problem:kreska pseudotaktowa	!	!	!
2A\	vir-	2r	.	.	2r	.	2a\	sa-
2F\	-go	2rG	.	.	2a\	vir-	2dd\	-cra-
!LO:TX:t=P:problem:kreska pseudotaktowa	!	!	!	!	!LO:TX:t=P:problem:kreska pseudotaktowa	!	!LO:TX:t=P:problem:kreska pseudotaktowa	!
2D/	sa-	2d\	vir-	.	2f\	-go	2dd\	-ta
=31	=31	=31-	=31-	=31-	=31	=31	=31	=31
4A\	-cra-	2c#X,<\	-go	.	2e\	sa-	1r	.
4G\	.	.	.	.	.	.	.	.
!LO:TX:t=P:problem:kreska pseudotaktowa	!	!LO:TX:t=P:problem:kreska pseudotaktowa	!	!	!LO:TX:t=P:problem:kreska pseudotaktowa	!	!	!
2F\	.	2A/	sa-	.	2f\	.	.	.
2E\	.	4B\	-cra-	.	2g\	-cra-	2r	.
.	.	4c#\	.	.	.	.	.	.
!LO:TX:t=P:problem:kreska pseudotaktowa	!	!LO:TX:t=P:problem:kreska pseudotaktowa	!	!	!	!	!LO:TX:t=P:problem:kreska pseudotaktowa	!
2D/	.	2d\	.	.	2f\	.	2a\	sa-
!	!	!	!	!	!LO:LB:g=original	!	!	!
=32	=32	=32	=32	=32	=32-	=32-	=32	=32
1.A	.	2c#X\	.	.	2e\	.	4a\	-cra-
.	.	.	.	.	.	.	4g\	.
.	.	1d	.	.	1f	.	4f/	.
.	.	.	.	.	.	.	4d/	.
.	.	.	.	.	.	.	1a	.
2AA/	.	2c#X\	-ta.	.	2e\	.	.	.
=33-	=33-	=33-	=33-	=33-	=33-	=33-	=33-	=33-
!LO:TX:a:t=P:w źródle fermata nad i pod nutą:problem	!	!	!	!	!	!	!LO:TX:a:t=P:w źródle fermata nad i pod nutą:problem	!
0D;;	-ta.	0d;<	.	.	0f#X;>	-ta.	0a;;	-ta.
!LO:LB:g=original	!	!	!	!	!	!	!LO:LB:g=original	!
=34||	=34||	=34||	=34||	=34||	=34||	=34||	=34||	=34||
*M2/1	*	*M2/1	*	*	*M2/1	*	*M2/1	*
*met(C|)	*	*met(C|)	*	*	*met(C|)	*	*met(C|)	*
!	!	!LO:TX:a:i:t=10.	!	!	!LO:TX:t=P:problem:kreska pseudotaktowa	!	!LO:TX:t=P:problem:kreska pseudotaktowa	!
00r	.	00r	.	.	1A	Da	1r	.
!	!	!	!	!	!LO:TX:t=P:problem:kreska pseudotaktowa	!	!LO:TX:t=P:problem:kreska pseudotaktowa	!
.	.	.	.	.	1d	mi-	1d	Da
=35-	=35-	=35-	=35-	=35-	=35	=35	=35	=35
!	!	!	!	!	!	!	!LO:TX:t=P:problem:kreska pseudotaktowa	!
.	.	.	.	.	4d\	-hi	1a	mi-
.	.	.	.	.	(>4c\	.	.	.
.	.	.	.	.	4d\)	vir-	.	.
!	!	!	!	!	!LO:TX:t=P:problem:kreska pseudotaktowa	!	!	!
.	.	.	.	.	4e\	.	.	.
!	!	!	!	!	!LO:TX:t=P:problem:kreska pseudotaktowa	!	!	!
.	.	.	.	.	1f	-tu-	4a\	-hi
.	.	.	.	.	.	.	(>4g\	.
.	.	.	.	.	.	.	4a\)	vir-
.	.	.	.	.	.	.	(>4b\	.
=36-	=36-	=36-	=36-	=36-	=36	=36	=36-	=36-
!	!	!	!	!	!	!	!LO:TX:t=P:problem:kreska pseudotaktowa	!
00r	.	00r	.	.	4e\	.	1cc)	-tu-
.	.	.	.	.	(>4d\	.	.	.
.	.	.	.	.	4e\)	.	.	.
!	!	!	!	!	!LO:TX:t=P:problem:kreska pseudotaktowa	!	!	!
.	.	.	.	.	4f\	.	.	.
!	!	!	!	!	!LO:LB:g=original	!	!	!
.	.	.	.	.	4g\	.	4bni\	.
.	.	.	.	.	4d\	.	4a\	.
.	.	.	.	.	1g\	.	4b\	.
!	!	!	!	!	!	!	!LO:TX:t=P:problem:kreska pseudotaktowa	!
.	.	.	.	.	.	.	4dd\	.
=37-	=37-	=37-	=37-	=37-	=37-	=37-	=37	=37
.	.	.	.	.	.	.	4cc#X\	.
.	.	.	.	.	.	.	4a\	.
.	.	.	.	.	2f\	.	1dd	.
!	!	!	!	!	!LO:TX:t=P:problem:kreska pseudotaktowa	!	!	!
.	.	.	.	.	1e	.	.	.
!	!	!	!	!	!	!	!LO:TX:t=P:problem:kreska pseudotaktowa	!
.	.	.	.	.	.	.	2cc#X\	.
=38-	=38-	=38-	=38-	=38-	=38	=38	=38	=38
!LO:TX:t=P:problem:kreska pseudotaktowa	!	!LO:TX:t=P:problem:kreska pseudotaktowa	!	!	!	!	!	!
1r	.	0r	.	.	1d,<	-tem	2dd,>\	-tem
.	.	.	.	.	.	.	2.a\	con-
1AA,<	Da	.	.	.	2.a\	con-	.	.
.	.	.	.	.	.	.	4g/	.
.	.	.	.	.	.	.	4f/	.
!	!	!	!	!	!LO:TX:t=P:problem:kreska pseudotaktowa	!	!LO:TX:t=P:problem:kreska pseudotaktowa	!
.	.	.	.	.	4g\	.	4e/	.
=39-	=39-	=39-	=39-	=39-	=39	=39	=39	=39
!LO:TX:t=P:problem:kreska pseudotaktowa	!	!	!	!	!	!	!	!
1D	mi-	1D,<	Da	.	4f\	.	2d/	.
.	.	.	.	.	4g\	.	.	.
!	!	!	!	!	!	!	!LO:TX:t=P:problem:kreska pseudotaktowa	!
.	.	.	.	.	4f\	.	2d/	-tra
.	.	.	.	.	4e\	.	.	.
!	!	!LO:TX:t=P:problem:kreska pseudotaktowa	!	!	!	!	!	!
4D\	-hi	1A	mi-	.	2d\	.	2f/	hos-
(>4C\	.	.	.	.	.	.	.	.
!	!	!	!	!	!LO:TX:t=P:problem:kreska pseudotaktowa	!	!	!
4D\)	vir-	.	.	.	2d\	-tra	2d/	-tes
!LO:TX:t=P:problem:kreska pseudotaktowa	!	!	!	!	!	!	!	!
(>4E\	.	.	.	.	.	.	.	.
!	!	!LO:LB:g=original	!	!	!	!	!LO:LB:g=original	!
=40-	=40-	=40	=40	=40	=40	=40	=40-	=40-
!LO:TX:t=P:problem:kreska pseudotaktowa	!	!	!	!	!	!	!	!
1F)	-tu-	4A\	-hi-	.	2r	.	2a\	con-
.	.	(>4G\	.	.	.	.	.	.
!	!	!	!	!	!LO:TX:t=P:problem:kreska pseudotaktowa	!	!	!
.	.	4A\)	-vir-	.	2c/	da	2f/	-tra
.	.	(>4B\	.	.	.	.	.	.
!	!	!LO:TX:t=P:problem:kreska pseudotaktowa	!	!	!	!	!	!
4E\	.	1c)	-tu-	.	4g\	con-	2cc\	hos-
4D\	.	.	.	.	(>4f\	.	.	.
!	!	!	!	!	!LO:TX:t=P:problem:kreska pseudotaktowa	!	!LO:TX:t=P:problem:kreska pseudotaktowa	!
4E\	.	.	.	.	2e\)	.	2cc\	-tes.
!LO:TX:t=P:problem:kreska pseudotaktowa	!	!	!	!	!	!	!	!
4F\	.	.	.	.	.	.	.	.
=41	=41	=41	=41	=41	=41	=41	=41	=41
4G\	.	4B\	.	.	2d\	.	2r	.
4D\	.	4A\	.	.	.	.	.	.
!	!	!	!	!	!LO:TX:t=P:problem:kreska pseudotaktowa	!	!LO:TX:t=P:problem:kreska pseudotaktowa	!
1G	.	4B\	.	.	2d\	-tra	2g/	da
!	!	!LO:TX:t=P:problem:kreska pseudotaktowa	!	!	!	!	!	!
.	.	4d\	.	.	.	.	.	.
.	.	4c#X\	.	.	2r	.	1a	mi-
.	.	4A\	.	.	.	.	.	.
!LO:TX:t=P:problem:kreska pseudotaktowa	!	!	!	!	!LO:TX:t=P:problem:kreska pseudotaktowa	!	!	!
2F\	.	1d\	.	.	2a\	con-	.	.
=42	=42	=42-	=42-	=42-	=42	=42	=42-	=42-
1E	.	.	.	.	2e\	-tra	2g,</	-hi
!	!	!LO:TX:t=P:problem:kreska pseudotaktowa	!	!	!	!	!LO:TX:t=P:problem:kreska pseudotaktowa	!
.	.	2c#X\	.	.	1g	hos-	2e/	vir-
*col	*	*	*	*	*	*	*	*
!LO:TX:t=P:problem:kreska pseudotaktowa	!	!	!	!	!	!	!	!
!LO:TX:a:t=P:w źródle nad nutą prawdopodobnie litera d:problem	!	!	!	!	!	!	!	!
1D	-tem	2d,<\	-tem	.	.	.	2.a\	-tu-
!	!	!	!	!	!LO:TX:t=P:problem:kreska pseudotaktowa	!	!	!
.	.	1A\	con-	.	2f\	-tes	.	.
!	!	!	!	!	!	!	!LO:TX:t=P:problem:kreska pseudotaktowa	!
.	.	.	.	.	.	.	4b\	.
*Xcol	*	*	*	*	*	*	*	*
!	!	!	!	!	!LO:LB:g=original	!	!	!
=43	=43	=43-	=43-	=43-	=43	=43	=43	=43
0r	.	.	.	.	2e\	tu-	2cc#X\	.
!	!	!LO:TX:t=P:problem:kreska pseudotaktowa	!	!	!	!	!	!
.	.	2F/	-tra	.	1f	.	2.dd\	.
.	.	2F/	hos-	.	.	.	.	.
.	.	.	.	.	.	.	4a\	.
!	!	!LO:TX:t=P:problem:kreska pseudotaktowa	!	!	!LO:TX:t=P:problem:kreska pseudotaktowa	!	!	!
.	.	2G/	-tes	.	2e\	.	1dd\	.
=44-	=44-	=44	=44	=44	=44	=44	=44-	=44-
!LO:TX:t=P:problem:kreska pseudotaktowa	!	!	!	!	!	!	!	!
1r	.	1A	tu-	.	2d\	.	.	.
!	!	!	!	!	!	!	!LO:TX:t=P:problem:kreska pseudotaktowa	!
.	.	.	.	.	2e\	.	2cc#X\	.
2r	.	2D/	-os.	.	2f#X\	-os	2dd\	-tem
!	!	!LO:TX:t=P:problem:kreska pseudotaktowa	!	!	!LO:TX:t=P:problem:kreska pseudotaktowa	!	!LO:TX:t=P:problem:kreska pseudotaktowa	!
2.A\	con-	2r	.	.	2r	.	2r	.
=45-	=45-	=45	=45	=45	=45	=45	=45	=45
.	.	1r	.	.	2r	.	2.a\	con-
4G\	.	.	.	.	.	.	.	.
4F\	.	.	.	.	2.a\	con-	.	.
!LO:TX:t=P:problem:kreska pseudotaktowa	!	!	!	!	!	!	!LO:TX:t=P:problem:kreska pseudotaktowa	!
4E\	.	.	.	.	.	.	4g/	.
2D/	.	2.d\	con-	.	.	.	4f/	.
.	.	.	.	.	4g\	.	4d/	-tra
!	!	!	!	!	!	!	!LO:LB:g=original	!
!LO:TX:t=P:problem:kreska pseudotaktowa	!	!	!	!	!	!	!LO:TX:t=P:problem:kreska pseudotaktowa:między nutą a kropką	!
2D/	-tra	.	.	.	4f\	.	(<2.dd\	con-
!	!	!LO:TX:t=P:problem:kreska pseudotaktowa	!	!	!LO:TX:t=P:problem:kreska pseudotaktowa	!	!	!
.	.	4c\	.	.	4e\	.	.	.
!LO:LB:g=original	!	!	!	!	!	!	!	!
=46	=46	=46	=46	=46	=46	=46	=46-	=46-
2.G\	con-	4B\	.	.	4d\	.	.	.
.	.	4A\	.	.	4d,<\	-tra	4cc\)	.
!	!	!LO:TX:t=P:problem:kreska pseudotaktowa	!	!	!LO:TX:t=P:problem:kreska pseudotaktowa	!	!	!
.	.	2G/	.	.	(<2.g\	con-	4b\	.
!LO:TX:t=P:problem:kreska pseudotaktowa	!	!	!	!	!	!	!	!
4F\	.	.	.	.	.	.	4a\	.
4E\	.	2G/	-tra	.	.	.	2g/	.
4D\	.	.	.	.	4f\)	.	.	.
!	!	!LO:LB:g=original	!	!	!	!	!	!
!LO:TX:t=P:problem:kreska pseudotaktowa	!	!LO:TX:t=P:problem:kreska pseudotaktowa:między nutą a kropką	!	!	!	!	!LO:TX:t=P:problem:kreska pseudotaktowa	!
2C/	.	(<2.g\	con-	.	4e\	.	2g/	-tra
.	.	.	.	.	4d\	.	.	.
=47	=47	=47-	=47-	=47-	=47-	=47-	=47	=47
2C/	-tra	.	.	.	2c/	.	2.gg\	con-
.	.	4f\)	.	.	.	.	.	.
!	!	!	!	!	!LO:TX:t=P:problem:kreska pseudotaktowa	!	!	!
2.c\	con-	4e\	.	.	2c/	-tra	.	.
!	!	!	!	!	!	!	!LO:TX:t=P:problem:kreska pseudotaktowa	!
.	.	4d\	.	.	.	.	4ff\	.
.	.	2c\	.	.	2.c/	con-	4ee\	.
4B\	.	.	.	.	.	.	4dd\	.
!	!	!LO:TX:t=P:problem:kreska pseudotaktowa	!	!	!	!	!LO:TX:t=P:problem:kreska pseudotaktowa	!
4A\	.	2c\	-tra	.	.	.	2cc\	.
!LO:TX:t=P:problem:kreska pseudotaktowa	!	!	!	!	!LO:TX:t=P:problem:kreska pseudotaktowa	!	!	!
4G\	.	.	.	.	4B/	.	.	.
=48	=48	=48	=48	=48	=48	=48	=48	=48
2F\	.	2r	.	.	4A/	.	2cc,<\	-tra
.	.	.	.	.	4G/	.	.	.
!	!	!	!	!	!	!	!LO:TX:t=P:problem:kreska pseudotaktowa	!
2F,>\	-tra	1d	hos-	.	4F/	.	(>2a\	ho-
!	!	!	!	!	!LO:TX:t=P:problem:kreska pseudotaktowa	!	!	!
.	.	.	.	.	4F/	-tra	.	.
!	!	!	!	!	!LO:PB:g=original	!	!	!
2G\	hos-	.	.	.	2d\	hos-	2b\)	.
!LO:TX:t=P:problem:kreska pseudotaktowa	!	!LO:TX:t=P:problem:kreska pseudotaktowa	!	!	!LO:TX:t=P:problem:kreska pseudotaktowa	!	!	!
2D/	-tes	2d\	-tes	.	2f\	-tes	2a\	-stes
=49	=49	=49	=49	=49	=49	=49	=49-	=49-
1AA	tu-	2d\	tu-	.	1e	tu-	1a	tu-
.	.	(>2c#X\	.	.	.	.	.	.
!LO:TX:t=P:problem:kreska pseudotaktowa	!	!	!	!	!LO:TX:t=P:problem:kreska pseudotaktowa	!	!LO:TX:t=P:problem:kreska pseudotaktowa	!
1D	-os	2d,<\)	-os.	.	1f#X	-os.	1f#X,<	-os
!	!	!LO:TX:t=P:problem:kreska pseudotaktowa	!	!	!	!	!	!
.	.	2D/	Da	.	.	.	.	.
=50	=50	=50	=50	=50	=50	=50	=50	=50
!	!	!	!	!	!	!	!LO:TX:t=P:problem:kreska pseudotaktowa	!
00r	.	1A	mi-	.	2r	.	1r	.
!	!	!	!	!	!LO:TX:t=P:problem:kreska pseudotaktowa	!	!	!
.	.	.	.	.	2A/	Da	.	.
!	!	!	!	!	!	!	!LO:PB:g=original	!
!	!	!	!	!	!LO:TX:t=P:problem:kreska pseudotaktowa	!	!	!
.	.	4A\	-hi	.	1e	mi-	1a,<	Da
.	.	(>4G\	.	.	.	.	.	.
.	.	4A\)	vir-	.	.	.	.	.
!	!	!LO:TX:t=P:problem:kreska pseudotaktowa	!	!	!	!	!	!
.	.	(>4B\	.	.	.	.	.	.
=51-	=51-	=51	=51	=51	=51	=51	=51-	=51-
!	!	!	!	!	!	!	!LO:TX:t=P:problem:kreska pseudotaktowa	!
.	.	1c)	-tu-	.	4e\	.	1ee	mi-
.	.	.	.	.	(>4d\	-hi-	.	.
.	.	.	.	.	4e\)	.	.	.
!	!	!	!	!	!LO:TX:t=P:problem:kreska pseudotaktowa	!	!	!
.	.	.	.	.	(>4f\	-vir-	.	.
.	.	4B\	.	.	2.g\)	-tu-	4dd\	-hi
.	.	4A\	.	.	.	.	(>4cc\	.
.	.	4B\	.	.	.	.	4dd\)	.
!	!	!LO:TX:t=P:problem:kreska pseudotaktowa	!	!	!	!	!LO:TX:t=P:problem:kreska pseudotaktowa	!
.	.	4c\	.	.	8f\L	.	4ee\	vir-
!	!	!	!	!	!LO:TX:t=P:problem:kreska pseudotaktowa	!	!	!
.	.	.	.	.	8e\J	.	.	.
=52-	=52-	=52	=52	=52	=52	=52	=52	=52
0r	.	4d\	.	.	4d\	.	2ff\	-tu-
.	.	4A\	.	.	4e\	.	.	.
!	!	!	!	!	!	!	!LO:TX:t=P:problem:kreska pseudotaktowa	!
.	.	1d	.	.	4f\	.	2dd,<\	-tem
!	!	!	!	!	!LO:TX:t=P:problem:kreska pseudotaktowa	!	!	!
.	.	.	.	.	4d\	.	.	.
.	.	.	.	.	4g\	.	2.ee\	con-
.	.	.	.	.	4e\	.	.	.
!	!	!LO:TX:t=P:problem:kreska pseudotaktowa	!	!	!	!	!	!
.	.	2c\	.	.	1a\	.	.	.
!	!	!	!	!	!	!	!LO:TX:t=P:problem:kreska pseudotaktowa	!
.	.	.	.	.	.	.	4cc\	-tra
=53-	=53-	=53	=53	=53	=53-	=53-	=53	=53
!LO:TX:t=P:problem:kreska pseudotaktowa	!	!	!	!	!	!	!	!
1r	.	1B	.	.	.	.	2dd\	hos-
!	!	!	!	!	!LO:TX:t=P:problem:kreska pseudotaktowa	!	!LO:TX:t=P:problem:kreska pseudotaktowa	!
.	.	.	.	.	2g#X\	.	2b\	-tes
!	!	!LO:PB:g=original	!	!	!	!	!	!
!	!	!LO:TX:t=P:problem:kreska pseudotaktowa	!	!	!	!	!	!
2r	.	1A	-tem	.	2.a\	-tem	2.ee\	con-
2.A\	con-	.	.	.	.	.	.	.
!	!	!	!	!	!	!	!LO:TX:t=P:problem:kreska pseudotaktowa	!
.	.	.	.	.	4gny\	.	4dd\	.
=54-	=54-	=54	=54	=54	=54-	=54-	=54	=54
.	.	1r	.	.	2.a\	con-	4cc\	.
4G\	.	.	.	.	.	.	4b\	.
!	!	!	!	!	!	!	!LO:TX:t=P:problem:kreska pseudotaktowa	!
4F\	.	.	.	.	.	.	2a\	.
!LO:TX:t=P:problem:kreska pseudotaktowa	!	!	!	!	!	!	!	!
4E\	.	.	.	.	4g\	.	.	.
!	!	!	!	!	!LO:LB:g=original	!	!	!
2D/	.	2.d\	con-	.	4f\	.	2a,<\	-tra
.	.	.	.	.	4e\	.	.	.
!LO:TX:t=P:problem:kreska pseudotaktowa	!	!	!	!	!LO:TX:t=P:problem:kreska pseudotaktowa	!	!	!
2D/	-tra	.	.	.	2d\	.	2.dd\	con-
!	!	!LO:TX:t=P:problem:kreska pseudotaktowa	!	!	!	!	!	!
.	.	4c\	.	.	.	.	.	.
=55	=55	=55	=55	=55	=55	=55	=55-	=55-
2.G\	con-	4B\	.	.	2d\	-tra	.	.
.	.	4A\	.	.	.	.	4cc\	.
!	!	!LO:TX:t=P:problem:kreska pseudotaktowa	!	!	!	!	!	!
.	.	2G/	.	.	2.g\	con-	4b\	.
!	!	!	!	!	!	!	!LO:TX:t=P:problem:kreska pseudotaktowa	!
4F\	.	.	.	.	.	.	4a\	.
!LO:LB:g=original	!	!	!	!	!	!	!	!
4E\	.	2G/	-tra	.	.	.	2g/	.
4D\	.	.	.	.	4f\	.	.	.
!LO:TX:t=P:problem:kreska pseudotaktowa	!	!	!	!	!	!	!LO:TX:t=P:problem:kreska pseudotaktowa	!
2C/	.	2.g\	con-	.	4e\	.	2g/	-tra
!	!	!	!	!	!LO:TX:t=P:problem:kreska pseudotaktowa	!	!	!
.	.	.	.	.	4d\	.	.	.
!	!	!	!	!	!	!	!LO:LB:g=original	!
=56	=56	=56-	=56-	=56-	=56	=56	=56	=56
2C,</	-tra	.	.	.	2c/	.	2.gg\	con-
.	.	4f\	.	.	.	.	.	.
!	!	!	!	!	!LO:TX:t=P:problem:kreska pseudotaktowa	!	!	!
2.c\	con-	4e\	.	.	2c,</	-tra	.	.
!	!	!LO:TX:t=P:problem:kreska pseudotaktowa	!	!	!	!	!LO:TX:t=P:problem:kreska pseudotaktowa	!
.	.	4d\	.	.	.	.	4ff\	.
.	.	2c\	.	.	2.c/	con-	4ee\	.
4B\	.	.	.	.	.	.	4dd\	.
!	!	!LO:TX:t=P:problem:kreska pseudotaktowa	!	!	!	!	!LO:TX:t=P:problem:kreska pseudotaktowa	!
4A\	.	2c\	-tra	.	.	.	2cc\	.
!LO:TX:t=P:problem:kreska pseudotaktowa	!	!	!	!	!LO:TX:t=P:problem:kreska pseudotaktowa	!	!	!
4G\	.	.	.	.	4B/	.	.	.
=57	=57	=57	=57	=57	=57	=57	=57	=57
2F\	.	2r	.	.	4A/	.	2cc\	-tra
.	.	.	.	.	4G/	.	.	.
*	*	*	*	*	*	*	*	*ij
!LO:TX:t=P:problem:kreska pseudotaktowa	!	!	!	!	!LO:TX:t=P:problem:kreska pseudotaktowa	!	!	!
2F\	-tra	1d	con-	.	2F/	.	1a	con-
2D/	con-	.	.	.	2F/	-tra	.	.
!	!	!LO:TX:t=P:problem:kreska pseudotaktowa	!	!	!	!	!LO:TX:t=P:problem:kreska pseudotaktowa	!
!	!	!	!	!	!LO:TX:t=P:problem:kreska pseudotaktowa	!	!	!
1G\	.	2d\	-tra	.	2d\	Con-	2b\	-tra
*	*	*	*	*	*	*	*	*Xij
=58-	=58-	=58	=58	=58	=58	=58	=58	=58
.	.	2c#X\	hos-	.	2e\	.	2cc#X\	hos-
!LO:TX:t=P:problem:kreska pseudotaktowa	!	!LO:TX:t=P:problem:kreska pseudotaktowa	!	!	!LO:TX:t=P:problem:kreska pseudotaktowa	!	!	!
2F\	-tra	2A/	-tes	.	(>2f\	.	2dd\	-tes
2E\	hos-	2c#X\	tu-	.	2g\)	.	2ee\	hos-
!LO:TX:t=P:problem:kreska pseudotaktowa	!	!LO:TX:t=P:problem:kreska pseudotaktowa	!	!	!LO:TX:t=P:problem:kreska pseudotaktowa	!	!LO:TX:t=P:problem:kreska pseudotaktowa	!
2D/	-tes	2d\	.	.	2f\	-tra	2a\	-tes
=59	=59	=59	=59	=59	=59	=59	=59	=59
0AA	tu-	2c#X\	.	.	2e\	hos-	4a\	tu-
.	.	.	.	.	.	.	4g\	.
!	!	!	!	!	!LO:TX:t=P:problem:kreska pseudotaktowa	!	!	!
.	.	1d	.	.	2f\	-tes	4f\	.
.	.	.	.	.	.	.	4d/	.
!	!	!	!	!	!LO:LB:g=original	!	!	!
.	.	.	.	.	1e	tu-	1a	.
!	!	!LO:TX:t=P:problem:kreska pseudotaktowa	!	!	!	!	!	!
.	.	2c#X\	.	.	.	.	.	.
!	!	!LO:LB:g=original	!	!	!	!	!	!
=60-	=60-	=60	=60	=60	=60-	=60-	=60-	=60-
!LO:TX:a:t=P:w źródle fermata nad i pod nutą:problem	!	!	!	!	!	!	!	!
0D;;	-os.	0d;<	-os.	.	0f#X;<	-os.	0a;>	-os.
!LO:PB:g=original	!	!	!	!	!	!	!	!
=61||	=61||	=61||	=61||	=61||	=61||	=61||	=61||	=61||
*M2/1	*	*M2/1	*	*	*M2/1	*	*M2/1	*
*met(C|)	*	*met(C|)	*	*	*met(C|)	*	*met(C|)	*
!	!	!	!	!	!LO:TX:t=P:problem:kreska pseudotaktowa	!	!	!
00r	.	2r	.	.	0r	.	00r	.
!	!	!LO:TX:t=P:problem:kreska pseudotaktowa	!	!	!	!	!	!
.	.	2d\	A-	.	.	.	.	.
.	.	2c\	.	.	.	.	.	.
!	!	!LO:TX:t=P:problem:kreska pseudotaktowa	!	!	!	!	!	!
.	.	2B-X\	.	.	.	.	.	.
=62-	=62-	=62	=62	=62	=62	=62	=62-	=62-
.	.	2.A/	.	.	2r	.	.	.
!	!	!	!	!	!LO:TX:t=P:problem:kreska pseudotaktowa	!	!	!
.	.	.	.	.	2a\	A-	.	.
.	.	4F/	.	.	.	.	.	.
.	.	2.B-X\	.	.	2g\	.	.	.
!	!	!	!	!	!LO:TX:t=P:problem:kreska pseudotaktowa	!	!	!
.	.	.	.	.	2f\	.	.	.
!	!	!LO:TX:t=P:problem:kreska pseudotaktowa	!	!	!	!	!	!
.	.	4G/	.	.	.	.	.	.
=63-	=63-	=63	=63	=63	=63	=63	=63-	=63-
00r	.	2.c\	.	.	2.e\	.	0r	.
!	!	!LO:TX:t=P:problem:kreska pseudotaktowa	!	!	!LO:TX:t=P:problem:kreska pseudotaktowa	!	!	!
.	.	4A\	.	.	4c\	.	.	.
.	.	2d\	.	.	2.f\	.	.	.
.	.	1d\	.	.	.	.	.	.
!	!	!	!	!	!LO:TX:t=P:problem:kreska pseudotaktowa	!	!	!
.	.	.	.	.	4d\	.	.	.
=64-	=64-	=64-	=64-	=64-	=64	=64	=64-	=64-
!	!	!	!	!	!	!	!LO:TX:t=P:problem:kreska pseudotaktowa	!
.	.	.	.	.	4g\	.	1r	.
.	.	.	.	.	4f\	.	.	.
!	!	!LO:TX:t=P:problem:kreska pseudotaktowa	!	!	!LO:TX:t=P:problem:kreska pseudotaktowa	!	!	!
.	.	2c#X\	.	.	2e\	.	.	.
.	.	2d,<\	-men,	.	2f,<\	-men	2rb	.
!	!	!LO:TX:t=P:problem:kreska pseudotaktowa	!	!	!LO:TX:t=P:problem:kreska pseudotaktowa	!	!LO:TX:t=P:problem:kreska pseudotaktowa	!
.	.	2D/	a-	.	2f\	a-	2dd\	A-
!	!	!	!	!	!	!	!LO:LB:g=original	!
=65-	=65-	=65	=65	=65	=65	=65	=65	=65
!LO:TX:t=P:problem:kreska pseudotaktowa	!	!	!	!	!	!	!	!
1r	.	4E/	.	.	2e\	.	2cc\	.
.	.	4F/	.	.	.	.	.	.
!	!	!	!	!	!LO:TX:t=P:problem:kreska pseudotaktowa	!	!LO:TX:t=P:problem:kreska pseudotaktowa	!
.	.	4G/	.	.	2d\	.	2b-X\	.
!	!	!LO:TX:t=P:problem:kreska pseudotaktowa	!	!	!	!	!	!
.	.	4E/	.	.	.	.	.	.
2r	.	2F/	-men	.	2c,</	-men	2a\	-men
!	!	!	!	!	!LO:LB:g=original	!	!	!
!LO:TX:t=P:problem:kreska pseudotaktowa	!	!LO:TX:t=P:problem:kreska pseudotaktowa	!	!	!LO:TX:t=P:problem:kreska pseudotaktowa	!	!LO:TX:t=P:problem:kreska pseudotaktowa	!
2A\	A-	2r	.	.	2c/	a-	2cc\	a-
!	!	!LO:LB:g=original	!	!	!	!	!	!
=66	=66	=66	=66	=66	=66	=66	=66	=66
!	!	!LO:TX:t=P:problem:kreska pseudotaktowa	!	!	!	!	!	!
2G\	.	1r	.	.	4d\	.	2b-X\	.
.	.	.	.	.	4e\	.	.	.
!LO:TX:t=P:problem:kreska pseudotaktowa	!	!	!	!	!	!	!	!
2F\	.	.	.	.	4f\	.	2a\	.
!	!	!	!	!	!LO:TX:t=P:problem:kreska pseudotaktowa	!	!	!
.	.	.	.	.	4d\	.	.	.
!	!	!	!	!	!	!	!LO:TX:t=P:problem:kreska pseudotaktowa	!
2.E\	.	2r	.	.	4e\	.	1g	-men
.	.	.	.	.	4f\	.	.	.
.	.	2.c\	a-	.	4g\	.	.	.
!LO:TX:t=P:problem:kreska pseudotaktowa	!	!	!	!	!LO:TX:t=P:problem:kreska pseudotaktowa	!	!	!
4C\	.	.	.	.	4e\	.	.	.
=67	=67	=67-	=67-	=67-	=67	=67	=67	=67
2.F\	.	.	.	.	4f\	.	2r	.
.	.	4A\	.	.	4g\	.	.	.
!	!	!LO:TX:t=P:problem:kreska pseudotaktowa:między nutą a kropką	!	!	!	!	!LO:TX:t=P:problem:kreska pseudotaktowa	!
.	.	(<2.d\	.	.	4a\	.	2a\	a-
!LO:TX:t=P:problem:kreska pseudotaktowa	!	!	!	!	!LO:TX:t=P:problem:kreska pseudotaktowa	!	!	!
4D\	.	.	.	.	4f\	.	.	.
2.G\	.	.	.	.	2g\	.	2b\	.
.	.	4B\)	.	.	.	.	.	.
!	!	!LO:TX:t=P:problem:kreska pseudotaktowa	!	!	!LO:TX:t=P:problem:kreska pseudotaktowa	!	!	!
.	.	2A/	.	.	2g\	-men	4cc#X\	.
!LO:TX:t=P:problem:kreska pseudotaktowa	!	!	!	!	!	!	!LO:TX:t=P:problem:kreska pseudotaktowa	!
4F\	.	.	.	.	.	.	4a\	.
=68	=68	=68	=68	=68	=68	=68	=68	=68
!	!	!	!	!	!LO:TX:t=P:problem:kreska pseudotaktowa	!	!	!
1E	.	1G	.	.	1r	.	2dd\	.
.	.	.	.	.	.	.	2cc#X\	.
2D,</	-men	2A,</	-men	.	2r	.	2dd,<\	-men,
!LO:TX:t=P:problem:kreska pseudotaktowa	!	!LO:TX:t=P:problem:kreska pseudotaktowa	!	!	!	!	!LO:TX:t=P:problem:kreska pseudotaktowa	!
2D/	a-	2D/	a-	.	2f\	a-	2f/	a-
=69	=69	=69	=69	=69	=69-	=69-	=69	=69
2C/	.	4E/	.	.	2e\	.	4g\	.
.	.	4F/	.	.	.	.	4a\	.
!LO:TX:t=P:problem:kreska pseudotaktowa	!	!	!	!	!LO:TX:t=P:problem:kreska pseudotaktowa	!	!	!
2BB-X/	.	4G/	.	.	2d\	.	4b-X\	.
!	!	!	!	!	!	!	!LO:TX:t=P:problem:kreska pseudotaktowa	!
.	.	4E/	.	.	.	.	4g\	.
2.AA/	.	2F/	-men	.	2c,</	-men	4a\	.
.	.	.	.	.	.	.	4b-X\	.
!	!	!LO:TX:t=P:problem:kreska pseudotaktowa	!	!	!LO:TX:t=P:problem:kreska pseudotaktowa	!	!	!
.	.	2A/	a-	.	2a\	a-	4cc\	.
!LO:TX:t=P:problem:kreska pseudotaktowa	!	!	!	!	!	!	!LO:TX:t=P:problem:kreska pseudotaktowa	!
4FF/	.	.	.	.	.	.	4a\	.
=70	=70	=70	=70	=70	=70	=70	=70	=70
2.BB-X/	.	4B-X\	.	.	2g\	.	2dd\	.
.	.	4c\	.	.	.	.	.	.
!	!	!	!	!	!LO:TX:t=P:problem:kreska pseudotaktowa	!	!LO:TX:t=P:problem:kreska pseudotaktowa	!
.	.	4d\	.	.	2f\	.	2dd,<\	-men
!LO:TX:t=P:problem:kreska pseudotaktowa	!	!LO:TX:t=P:problem:kreska pseudotaktowa	!	!	!	!	!	!
4GG/	.	4B-\	.	.	.	.	.	.
!	!	!	!	!	!	!	!LO:LB:g=original	!
!	!	!	!	!	!	!	!LO:TX:t=P:problem:kreska pseudotaktowa	!
2.C/	.	4c\	.	.	2.e\	.	1r	.
.	.	4d\	.	.	.	.	.	.
.	.	4e\	.	.	.	.	.	.
!LO:TX:t=P:problem:kreska pseudotaktowa	!	!LO:TX:t=P:problem:kreska pseudotaktowa	!	!	!	!	!	!
4AA/	.	4c\	.	.	4c/	.	.	.
=71	=71	=71	=71	=71	=71-	=71-	=71	=71
2D/	.	2d\	.	.	2.f\	.	2.a\	a-
!LO:LB:g=original	!	!	!	!	!	!	!	!
1D	.	2A/	.	.	.	.	.	.
!	!	!	!	!	!LO:TX:t=P:problem:kreska pseudotaktowa	!	!LO:TX:t=P:problem:kreska pseudotaktowa	!
.	.	.	.	.	4d\	.	4f/	.
!	!	!LO:LB:g=original	!	!	!LO:LB:g=original	!	!	!
!	!	!	!	!	!LO:TX:t=P:problem:kreska pseudotaktowa	!	!	!
.	.	2G/	.	.	1e	.	2.g/	.
!LO:TX:t=P:problem:kreska pseudotaktowa	!	!LO:TX:t=P:problem:kreska pseudotaktowa	!	!	!	!	!	!
2C#X/	.	2A/	.	.	.	.	.	.
.	.	.	.	.	.	.	4e/	.
=72	=72	=72	=72	=72	=72	=72	=72-	=72-
2D,</	-men,	2D,</	-men	.	2f\	-men	2a\	.
!LO:TX:t=P:problem:kreska pseudotaktowa	!	!LO:TX:t=P:problem:kreska pseudotaktowa	!	!	!LO:TX:t=P:problem:kreska pseudotaktowa	!	!LO:TX:t=P:problem:kreska pseudotaktowa	!
2D/	a-	2F/	a-	.	2r	.	2a\	-men
!	!	!	!	!	!LO:TX:t=P:problem:kreska pseudotaktowa	!	!	!
4E\	.	4G/	.	.	00r	.	1r	.
4F\	.	4A/	.	.	.	.	.	.
4G\	.	4B\	.	.	.	.	.	.
!LO:TX:t=P:problem:kreska pseudotaktowa	!	!LO:TX:t=P:problem:kreska pseudotaktowa	!	!	!	!	!	!
4E\	.	4G/	.	.	.	.	.	.
=73	=73	=73	=73	=73	=73-	=73-	=73-	=73-
4F\	.	4A\	.	.	.	.	2r	.
4G\	.	4B\	.	.	.	.	.	.
!	!	!	!	!	!	!	!LO:TX:t=P:problem:kreska pseudotaktowa	!
4A\	.	4c\	.	.	.	.	2a\	a-
!LO:TX:t=P:problem:kreska pseudotaktowa	!	!LO:TX:t=P:problem:kreska pseudotaktowa	!	!	!	!	!	!
4F\	.	4A\	.	.	.	.	.	.
4G\	.	2d\	.	.	.	.	4bn\	.
4A\	.	.	.	.	.	.	4cc\	.
!	!	!LO:TX:t=P:problem:kreska pseudotaktowa	!	!	!	!	!	!
4B-X\	.	2d\	-men	.	.	.	4dd\	.
!LO:TX:t=P:problem:kreska pseudotaktowa	!	!	!	!	!	!	!LO:TX:t=P:problem:kreska pseudotaktowa	!
4G\	.	.	.	.	.	.	4b\	.
=74	=74	=74	=74	=74	=74-	=74-	=74	=74
2A,<\	-men	2r	.	.	.	.	4cc\	.
.	.	.	.	.	.	.	4dd\	.
!LO:TX:t=P:problem:kreska pseudotaktowa	!	!LO:TX:t=P:problem:kreska pseudotaktowa	!	!	!	!	!	!
2A\	a-	2c\	a-	.	.	.	4ee\	.
!	!	!	!	!	!	!	!LO:TX:t=P:problem:kreska pseudotaktowa	!
.	.	.	.	.	.	.	4cc\	.
2G\	.	2B-X\	.	.	2r	.	2dd,<\	-men
!LO:TX:t=P:problem:kreska pseudotaktowa	!	!LO:TX:t=P:problem:kreska pseudotaktowa	!	!	!LO:TX:t=P:problem:kreska pseudotaktowa	!	!LO:TX:t=P:problem:kreska pseudotaktowa	!
2F\	.	2A/	.	.	2d\	a-	2dd\	a-
=75	=75	=75	=75	=75	=75	=75	=75	=75
2.E\	.	2G/	.	.	4e\	.	2cc\	.
.	.	.	.	.	4f\	.	.	.
!	!	!LO:TX:t=P:problem:kreska pseudotaktowa	!	!	!	!	!LO:TX:t=P:problem:kreska pseudotaktowa	!
.	.	2G/	-men	.	4g\	.	2b-X\	.
!LO:TX:t=P:problem:kreska pseudotaktowa	!	!	!	!	!LO:TX:t=P:problem:kreska pseudotaktowa	!	!	!
4C/	.	.	.	.	4e\	.	.	.
2.F\	.	2r	.	.	4f\	.	2a\	.
.	.	.	.	.	4g\	.	.	.
!	!	!LO:TX:t=P:problem:kreska pseudotaktowa	!	!	!	!	!LO:TX:t=P:problem:kreska pseudotaktowa	!
.	.	2A/	a-	.	4a\	.	2a\	-men
!LO:TX:t=P:problem:kreska pseudotaktowa	!	!	!	!	!LO:TX:t=P:problem:kreska pseudotaktowa	!	!	!
4D\	.	.	.	.	4f\	.	.	.
=76	=76	=76	=76	=76	=76	=76	=76	=76
!	!	!	!	!	!	!	!LO:TX:t=P:problem:kreska pseudotaktowa	!
2.G\	.	4Bn\	.	.	2g,<\	-men	1r	.
.	.	4c\	.	.	.	.	.	.
.	.	4d\	.	.	1g	a-	.	.
!LO:TX:t=P:problem:kreska pseudotaktowa	!	!LO:TX:t=P:problem:kreska pseudotaktowa	!	!	!	!	!	!
4F\	.	4B\	.	.	.	.	.	.
!LO:LB:g=original	!	!LO:LB:g=original	!	!	!	!	!	!
2E\	.	2c#X\	.	.	.	.	2r	.
!	!	!LO:TX:t=P:problem:kreska pseudotaktowa	!	!	!LO:TX:t=P:problem:kreska pseudotaktowa	!	!LO:TX:t=P:problem:kreska pseudotaktowa	!
2D/	.	2d\	.	.	2f\	.	2d/	a-
!	!	!	!	!	!	!	!LO:LB:g=original	!
=77-	=77-	=77	=77	=77	=77	=77	=77	=77
0AA	.	4c#X\	.	.	2e\	.	4e/	.
.	.	4A\	.	.	.	.	4f/	.
!	!	!LO:TX:t=P:problem:kreska pseudotaktowa	!	!	!	!	!	!
.	.	2d\	.	.	1d	.	4g/	.
!	!	!	!	!	!	!	!LO:TX:t=P:problem:kreska pseudotaktowa	!
.	.	.	.	.	.	.	4f/	.
.	.	1A	.	.	.	.	1e	.
.	.	.	.	.	2c#X/	.	.	.
=78-	=78-	=78-	=78-	=78-	=78-	=78-	=78-	=78-
!LO:TX:t=P:problem:podwójna kreska pseudotaktowa	!	!	!	!	!LO:TX:t=P:problem:podwójna kreska pseudotaktowa	!	!	!
!	!	!LO:TX:t=P:problem:podwójna kreska pseudotaktowa	!	!	!	!	!LO:TX:t=P:problem:kreska pseudotaktowa	!
!LO:TX:a:t=P:very like terminal long:problem	!	!	!	!	!	!	!	!
!LO:TX:a:t=P:w źródle fermata nad i pod nutą:problem	!	!LO:TX:a:t=P:w źródle fermata nad i pod nutą:problem	!	!	!	!	!LO:TX:a:t=P:w źródle fermata nad i pod nutą:problem	!
0Dl;l	-men	0A;;	-men	.	0d;<	-men	0f#X;;	-men
=79-	=79-	=79	=79	=79	=79	=79	=79	=79
*	*	*	*ij	*	*	*	*	*
0GG	a-	0B-X	a-	.	0d	a-	0g	a-
=80-	=80-	=80-	=80-	=80-	=80-	=80-	=80-	=80-
!	!	!	!	!	!LO:TX:a:t=P:w źródle ozdobna kreska taktowa:problem	!	!LO:TX:a:t=P:w źródle ozdobna kreska taktowa:problem	!
!LO:TX:a:t=P:w źródle ozdobna kreska taktowa:problem	!	!LO:TX:a:t=P:w źródle podwójna kreska taktowa jako kreska końcowa:problem	!	!	!	!	!	!
!	!	!LO:TX:a:t=P:very like terminal long:problem	!	!	!	!	!	!
!	!	!	!	!	!LO:TX:a:t=P:w źródle fermata nad i pod nutą:problem	!	!LO:TX:a:t=P:w źródle fermata nad i pod nutą:problem	!
!LO:TX:a:t=P:w źródle fermata nad i pod nutą:problem	!	!LO:TX:a:t=P:w źródle fermata nad i pod nutą:problem	!	!	!	!	!	!
0D;;	-men.	0Al;;	-men	.	0d;;	-men.	0f#X;;	-men.
*	*	*	*Xij	*	*	*	*	*
==	==	==	==	==	==	==	==	==
*-	*-	*-	*-	*-	*-	*-	*-	*-
!!title: @{OTL};
!!!RDF**kern: > = above
!!!RDF**kern: < = below
!!!RDF**kern: l = terminal long
!!!RDF**kern: i = editorial accidental
!!!EED: Wojciech Jakubiak-Danek
!!!EST: 2021-04-10
!!!URL-scan: http://repozytorium.nifc.pl/skany/pl-kk-nut--i-339
!!!ONB-nifc:
!!!ENC: Mateusz Solarz
!!!END: 2021-03-17
